src/assets/riderwave.svg

<svg width="1728" height="288" viewBox="0 0 1728 288" fill="none" xmlns="http://www.w3.org/2000/svg">
<path d="M201.448 43.5597C133.631 43.5597 20.0082 14.5199 -28.3261 0H-66.25V255.006C-23.8645 281.323 350.912 272.248 493.685 255.006C636.457 237.764 839.461 266.803 1015.7 283.138C1191.93 299.473 1314.62 265.896 1455.17 260.451C1567.6 256.095 1728.07 273.761 1794.25 283.138V52.6347C1758.56 52.6347 1736.25 36.2998 1644.79 21.7799C1553.32 7.25996 1444.01 14.5199 1374.86 17.2424C1305.7 19.9649 1015.7 54.4497 928.694 52.6347C841.692 50.8197 714.535 19.0574 616.38 9.98244C518.224 0.907495 286.219 43.5597 201.448 43.5597Z" fill="#F08F00"/>
</svg>

<svg xmlns="http://www.w3.org/2000/svg" width="1728" height="288" fill="none"><path fill="#F08F00" d="M201.448 43.56C133.631 43.56 20.008 14.52-28.326 0H-66.25v255.006c42.386 26.317 417.162 17.242 559.935 0s345.776 11.797 522.015 28.132c176.23 16.335 298.92-17.242 439.47-22.687 112.43-4.356 272.9 13.31 339.08 22.687V52.635c-35.69 0-58-16.335-149.46-30.855-91.47-14.52-200.78-7.26-269.93-4.538-69.16 2.723-359.16 37.208-446.166 35.393C841.692 50.82 714.535 19.057 616.38 9.982S286.219 43.56 201.448 43.56"/></svg>
